X: 22320
T: La Sansonette
R: reel
M: 4/4
K: Ddorian
|:BB A3G|F/G/A/B/ E2|E/F/G/A/ BA/B/|de B2|
BB A3G|F/G/A/B/ E2|E/F/G/A/ BA/G/|F/G/A/B/ E2:|
|:BG/B/ c/G/B/c/|BG/B/ c/G/B/c/|F3B c/F/B/c|F3B c/F/B/c/|
BG/B/ c/G/B/c/|BG/B/ c/G/B/c/|F3B c/B/A/G/|F/G/A/F/ E2:|
|:BG/B/ c/B/A/G/|F/E/D/F/ AF|BG/B/ c/B/A/G/|F/E/D/F/ E2|
BG/B/ c/B/A/G/|F/E/D/F/ AF|G/F/E/G/ F/E/D/F/|E2 E2:|

